!!!!SEGMENT: pl-kk--kk-i-88--003-002_golabek-jakub--missa-3-christe.krn
!!!cenid: 17xx:2583
!!!COM: Gołąbek, Jakub
!!!COM-rismID: pe30008748
!!!CDT: 1739-1789/03/30
!!!CNT: Polish
!!!OPR: Missa 3
!!!OTL: Christe
!!!OMV: 002
!!!PDT:
!!!AGN: Sacred; Mass
!!!YEC: Copyright 2022 Narodowy Instytut Fryderyka Chopina (https://polishscores.org)
!!!YEM: License CC-BY-4.0 (https://creativecommons.org/licenses/by/4.0)
!!!SMS-siglum: PL-Kk
!!!SMS-shelfmark: Kk.I.88
!!!SMS-variant:
!!!SMS-altvar:
!!!SMS-shelfwork: 003-002 M
!!!NIFC-rismSourceID: 1001164072
!!!NIFC-rismChildID: 1001164082
!!!NIFC-islandoraID:
!!!URL-pdf-islandora: https://repozytorium.nifc.pl/islandora/object/pl-kk%3A3086/datastream/PDF/view
!!!URL-scan: https://polish.musicsources.pl/pl/lokalizacje/galeria/rekopisy/6148-missa/4 @EN{Scan on Polish Music Sources Website} @PL{Skany w portalu Dziedzictwo Muzyki Polskiej w otwartym dostępie}
!!!IIIF:
!!!ONB-nifc: UWAGA: C - f. 6r-7v; A - f. 14r-15v; T - f. 22r-23v; B - f. 30r-31v; B rip - f. 35r-36v. Proszę uwzględniać B rip. Części Mszy: 1. Kyrie, 2. Christe, 3. Et in terra, 4. Quoniam, 5. Sanctus, 6. Osanna, 7. Benedictus, 8. Agnus Dei.
!!!OMD:
!!!AIN: 1 alto 2 bass 1 canto 1 tenor
!!!key: C
**kern	**text	**kern	**text	**kern	**text	**dynam	**kern	**text	**kern	**text	**dynam
*part5	*part5	*part4	*part4	*part3	*part3	*part3	*part2	*part2	*part1	*part1	*part1
*staff5	*staff5	*staff4	*staff4	*staff3	*staff3	*	*staff2	*staff2	*staff1	*staff1	*
*I"Baſso E ripieno	*	*I"Baſso	*	*I"Tenore	*	*	*I"Alto	*	*I"Canto	*	*
*I'B rip	*	*I'B	*	*I'T	*	*	*I'A	*	*I'S	*	*
*Ibass	*	*Ibass	*	*Itenor	*	*	*Ialto	*	*Icanto	*	*
*ICvox	*	*ICvox	*	*ICvox	*	*	*ICvox	*	*ICvox	*	*
*clefF4	*	*clefF4	*	*clefC4	*	*	*clefC3	*	*clefC1	*	*
*k[]	*	*k[]	*	*k[]	*	*	*k[]	*	*k[]	*	*
*C:	*	*C:	*	*C:	*	*	*C:	*	*C:	*	*
*M3/2	*	*M3/2	*	*M3/2	*	*	*M3/2	*	*M3/2	*	*
=1	=1	=1	=1	=1	=1	=1	=1	=1	=1	=1	=1
2C/	Chri-	2C/	Chri-	2G/	Chri-	.	4c\	Chri-	4g\	Chri-	.
.	.	.	.	.	.	.	4e\	-ste	4cc\	-ste	.
*	*	*	*	*	*	*	*2\right	*	*2\right	*	*
2E/	-ste	2E/	-ste	2G/	-ste	.	2g\	.	2ee\	.	.
*2\right	*	*2\right	*	*	*	*	*	*	*	*	*
2G\	e-	2G\	e-	2B/	e-	.	2f\	e-	2dd\	e-	.
=2	=2	=2	=2	=2	=2	=2	=2	=2	=2	=2	=2
2c\	-lei-	2c\	-lei-	2G/	-lei-	.	2f\	-lei-	2dd\	-lei-	.
2C/	-son	2C/	-son	2G/	-son	.	2e\	-son	2cc\	-son	.
*	*	*	*	*2\right	*	*	*	*	*	*	*
2C/	e-	2C/	e-	2c\	e-	.	2g\	e-	2ee\	e-	.
=3	=3	=3	=3	=3	=3	=3	=3	=3	=3	=3	=3
.	.	.	.	.	.	.	8qqg/	.	8qqee/	.	.
2F\	-lei-	2F\	-lei-	2A\	-lei-	.	2f\	-lei-	2dd\	-lei-	.
.	.	.	.	.	.	.	8qqf/	.	.	.	.
2G\	.	2G\	.	1G	.	.	2e\	.	2cc\	.	.
2GG/	.	2GG/	.	.	.	.	2d\	.	2b\	.	.
=4	=4	=4	=4	=4	=4	=4	=4	=4	=4	=4	=4
2C/	-son	2C/	-son	2G/	-son	.	2e\	-son	2cc\	-son	.
2r	.	2r	.	2r	.	.	2r	.	2r	.	.
2C/	e-	2C/	e-	2G/	e-	.	4g\	e-	4ee\	e-	.
.	.	.	.	.	.	.	4e\	.	4cc\	.	.
=5	=5	=5	=5	=5	=5	=5	=5	=5	=5	=5	=5
2G\	-lei-	2G\	-lei-	2G/	-lei-	.	2e\	-lei-	2cc\	-lei-	.
2G\	-son	2G\	-son	2G/	-son	.	2d\	-son	2b\	-son	.
4G\	e-	4G\	e-	2B\	e-	.	4a\	e-	4ff\	e-	.
8A\L	.	8A\L	.	.	.	.	4f\	.	4dd\	.	.
8B\J	.	8B\J	.	.	.	.	.	.	.	.	.
!	!	!	!	!	!	!	!LO:LB:g=original	!	!	!	!
=6	=6	=6	=6	=6	=6	=6	=6	=6	=6	=6	=6
2c\	-lei-	2c\	-lei-	2G/	-lei-	.	2f\	-lei-	2dd\	-lei-	.
2C/	-son	2C/	-son	2G/	-son	.	2e\	-son	2cc\	-son	.
2C/	e-	2C/	e-	2c\	e-	.	2g\	e-	2ee\	e-	.
!	!	!LO:LB:g=original	!	!	!	!	!	!	!LO:LB:g=original	!	!
=7	=7	=7	=7	=7	=7	=7	=7	=7	=7	=7	=7
2C/	-lei-	2C/	-lei-	2c\	-lei-	.	4g\	-lei-	4ee\	-lei-	.
.	.	.	.	.	.	.	4e\	.	4cc\	.	.
2F\	.	2F\	.	1A	.	.	4a\	.	4ff\	.	.
.	.	.	.	.	.	.	4g\	.	4ee\	.	.
2F#X\	.	2F#X\	.	.	.	.	4f\	.	4dd\	.	.
.	.	.	.	.	.	.	4e\	.	4cc\	.	.
!	!	!	!	!LO:LB:g=original	!	!	!	!	!	!	!
=8	=8	=8	=8	=8	=8	=8	=8	=8	=8	=8	=8
.	.	.	.	.	.	.	.	.	8qqcc/	.	.
1G	-son	1G	-son	1G	-son	.	1d	-son	1b	-son	.
2r	.	2r	.	2r	.	.	2r	.	2r	.	.
=9	=9	=9	=9	=9	=9	=9	=9	=9	=9	=9	=9
1.r	.	1.r	.	2B\	Chri-	.	2g\	Chri-	2dd\	Chri-	.
.	.	.	.	2G/	-ste	.	2d\	-ste	2b\	-ste	.
.	.	.	.	2G/	e-	.	8f\L	e-	2cc\	e-	.
.	.	.	.	.	.	.	8e\	.	.	.	.
.	.	.	.	.	.	.	8d\	.	.	.	.
.	.	.	.	.	.	.	8c\J	.	.	.	.
=10	=10	=10	=10	=10	=10	=10	=10	=10	=10	=10	=10
2G\	Chri-	2G\	Chri-	1G	-lei-	.	2d/	-lei-	1ff	-lei-	.
2D\	-ste	2D\	-ste	.	.	.	2B/	.	.	.	.
8F\L	e-	8F\L	e-	2G/	-son	.	2c/	-son	2ee\	-son	.
8E\	.	8E\	.	.	.	.	.	.	.	.	.
8D\	.	8D\	.	.	.	.	.	.	.	.	.
8C\J	.	8C\J	.	.	.	.	.	.	.	.	.
!LO:LB:g=original	!	!	!	!	!	!	!	!	!	!	!
=11	=11	=11	=11	=11	=11	=11	=11	=11	=11	=11	=11
2BB/	-lei-	2BB/	-lei-	2B\	e-	.	2d\	Chri-	2gg\	Chri-	.
2GG/	.	2GG/	.	2B\	-lei-	.	2g\	-ste	2dd\	-ste	.
2C/	-son	2C/	-son	2c\	-son	.	2g\	e-	8ff\L	e-	.
.	.	.	.	.	.	.	.	.	8ee\	.	.
.	.	.	.	.	.	.	.	.	8dd\	.	.
.	.	.	.	.	.	.	.	.	8cc\J	.	.
=12	=12	=12	=12	=12	=12	=12	=12	=12	=12	=12	=12
2G\	Chri-	2G\	Chri-	2g\	Chri-	.	1g	-lei-	2cc\	-lei-	.
2GG/	.	2GG/	.	2d\	-ste	.	.	.	2b\	.	.
2C/	-ste	2C/	-ste	8f\L	e-	.	2g\	-son	2cc\	-son	.
.	.	.	.	8e\	.	.	.	.	.	.	.
.	.	.	.	8d\	.	.	.	.	.	.	.
.	.	.	.	8c\J	.	.	.	.	.	.	.
!	!	!	!	!	!	!	!LO:LB:g=original	!	!	!	!
=13	=13	=13	=13	=13	=13	=13	=13	=13	=13	=13	=13
4F\	e-	4F\	e-	1.c	-lei-	.	1.a	e-	1.ff	e-	.
4E\	.	4E\	.	.	.	.	.	.	.	.	.
4F\	.	4F\	.	.	.	.	.	.	.	.	.
4G\	.	4G\	.	.	.	.	.	.	.	.	.
4A\	.	4A\	.	.	.	.	.	.	.	.	.
4B\	.	4B\	.	.	.	.	.	.	.	.	.
!	!	!	!	!	!	!	!	!	!LO:LB:g=original	!	!
=14	=14	=14	=14	=14	=14	=14	=14	=14	=14	=14	=14
2c\	-lei-	2c\	-lei-	2c\	.	.	2g\	-lei-	2ee\	-lei-	.
2G\	.	2G\	.	2B\	.	.	2f\	.	2dd\	.	.
2C/	-son	2C/	-son	2G/	-son	.	2e\	.	2cc\	-son	.
!	!	!LO:LB:g=original	!	!LO:LB:g=original	!	!	!	!	!	!	!
=15	=15	=15	=15	=15	=15	=15	=15	=15	=15	=15	=15
2F\	e-	2F\	e-	2A/	e-	.	4f\	.	4dd\	e-	.
.	.	.	.	.	.	.	8g\L	.	8ee\L	.	.
.	.	.	.	.	.	.	8f\J	.	8dd\J	.	.
2G\	-lei-	2G\	-lei-	1G	-lei-	.	2e\	.	2cc\	-lei-	.
2GG/	.	2GG/	.	.	.	.	2d\	.	2b\	.	.
=16	=16	=16	=16	=16	=16	=16	=16	=16	=16	=16	=16
1C	-son	1C	-son	1G	-son	.	1e	-son	1cc	-son	.
2r	.	2r	.	2r	.	.	2r	.	2r	.	.
=17	=17	=17	=17	=17	=17	=17	=17	=17	=17	=17	=17
!	!	!	!	!	!	!LO:DY:a:rj	!	!	!	!	!LO:DY:a:t=p&colon;:rj
1.r	.	1.r	.	2B\	Chri-	p	2g\	Chri-	2dd\	Chri-	p
.	.	.	.	2G/	-ste	.	2d\	-ste	2b\	-ste	.
.	.	.	.	2G/	e-	.	8f\L	e-	2cc\	e-	.
.	.	.	.	.	.	.	8e\	.	.	.	.
.	.	.	.	.	.	.	8d\	.	.	.	.
.	.	.	.	.	.	.	8c\J	.	.	.	.
=18	=18	=18	=18	=18	=18	=18	=18	=18	=18	=18	=18
2G\	Chri-	2G\	Chri-	1G	-lei-	.	2d/	-lei-	1ff	-lei-	.
2D\	-ste	2D\	-ste	.	.	.	2B/	.	.	.	.
8F\L	e-	8F\L	e-	2G/	-son	.	2c/	-son	2ee\	-son	.
8E\	.	8E\	.	.	.	.	.	.	.	.	.
8D\	.	8D\	.	.	.	.	.	.	.	.	.
8C\J	.	8C\J	.	.	.	.	.	.	.	.	.
=19	=19	=19	=19	=19	=19	=19	=19	=19	=19	=19	=19
2BB/	-lei-	2BB/	-lei-	2B\	e-	.	2d\	Chri-	2gg\	Chri-	.
2GG/	.	2GG/	.	2B\	-lei-	.	2g\	-ste	2dd\	-ste	.
2C/	-son	2C/	-son	2c\	-son	.	2g\	e-	8ff\L	e-	.
.	.	.	.	.	.	.	.	.	8ee\	.	.
.	.	.	.	.	.	.	.	.	8dd\	.	.
.	.	.	.	.	.	.	.	.	8cc\J	.	.
!	!	!	!	!	!	!	!LO:LB:g=original	!	!	!	!
=20	=20	=20	=20	=20	=20	=20	=20	=20	=20	=20	=20
2G\	Chri-	2G\	Chri-	2g\	Chri-	.	1g	-lei-	2cc\	-lei-	.
2GG/	.	2GG/	.	2d\	-ste	.	.	.	2b\	.	.
2C/	-ste	2C/	-ste	8f\L	e-	.	2g\	-son	2cc\	-son	.
.	.	.	.	8e\	.	.	.	.	.	.	.
.	.	.	.	8d\	.	.	.	.	.	.	.
.	.	.	.	8c\J	.	.	.	.	.	.	.
!LO:LB:g=original	!	!	!	!	!	!	!	!	!LO:LB:g=original	!	!
=21	=21	=21	=21	=21	=21	=21	=21	=21	=21	=21	=21
!	!	!	!	!	!	!	!	!	!	!	!LO:DY:a:t=for:rj
4F\	e-	4F\	e-	1.c	-lei-	.	1.a	e-	1.ff	e-	f
4E\	.	4E\	.	.	.	.	.	.	.	.	.
4F\	.	4F\	.	.	.	.	.	.	.	.	.
4G\	.	4G\	.	.	.	.	.	.	.	.	.
4A\	.	4A\	.	.	.	.	.	.	.	.	.
4B\	.	4B\	.	.	.	.	.	.	.	.	.
!	!	!LO:LB:g=original	!	!LO:LB:g=original	!	!	!	!	!	!	!
=22	=22	=22	=22	=22	=22	=22	=22	=22	=22	=22	=22
2c\	-lei-	2c\	-lei-	2c\	.	.	2g\	-lei-	2ee\	-lei-	.
2G\	.	2G\	.	2B\	.	.	2f\	.	2dd\	.	.
2C/	-son	2C/	-son	2G/	-son	.	2e\	.	2cc\	-son	.
=23	=23	=23	=23	=23	=23	=23	=23	=23	=23	=23	=23
2F\	e-	2F\	e-	2A/	e-	.	4f\	.	4dd\	e-	.
.	.	.	.	.	.	.	8g\L	.	8ee\L	.	.
.	.	.	.	.	.	.	8f\J	.	8dd\J	.	.
2G\	-lei-	2G\	-lei-	1G	-lei-	.	2e\	.	2cc\	-lei-	.
2GG/	.	2GG/	.	.	.	.	2d\	.	2b\	.	.
=24	=24	=24	=24	=24	=24	=24	=24	=24	=24	=24	=24
1C	-son	1C	-son	1G	-son	.	1e	-son	1cc	-son	.
!LO:TX:a:t=Kyrie da Capô	!	!LO:TX:a:t=Kyrie da Capo	!	!LO:TX:a:t=Kyrie da Capô	!	!	!LO:TX:a:t=Kyrie da Capo	!	!LO:TX:a:t=Kyrie da Capo	!	!
2r	.	2r	.	2r	.	.	2r	.	2r	.	.
!LO:LB:g=original	!	!LO:LB:g=original	!	!LO:LB:g=original	!	!	!LO:LB:g=original	!	!LO:LB:g=original	!	!
==	==	==;;	==	==	==	==	==;;	==	==;;	==	==
*-	*-	*-	*-	*-	*-	*-	*-	*-	*-	*-	*-
!!!system-decoration: [(s1,s2,s3,s4)]s5
!!!ENC: Berenika Jozajtis
!!!END: 2024-02-28
!!!EED: Marta Chmielewska
!!!EEV: 2024-05-02
